X: 68
T:Coloured Aristocracy
% Nottingham Music Database
S:via PR
M:4/4
L:1/4
K:G
"G"GG/2A/2 G/2E/2D/2E/2|G3A|"Em"BB/2c/2 B/2A/2G|"Em"E4|"C"ee/2f/2 ge|\
"G"dd/2e/2 dB| [1"A7"AB c^c|"D7"dD EF:|
 [2"D7"B/2A/2B/2d/2 -d/2B/2A|"G"Gd ef|:"G"gg/2a/2 g/2e/2d|"Em"e3d|\
"C"e3/2f/2 ed|
"G"B4|"C"ee/2f/2 ge|"G"dd/2e/2 dB| [1"A7"AB c^c|"D7"dd ef:|[2"D7"B/2A/2B/2d/2 -d/2B/2A|"G"G4||<end>
<start>
